!!!COM: Corelli, Arcangelo
!!!OTL: Sonate a tre [in D]
!!!XEN: Trio Sonata Opus 1, No. 12
!!!OPS: Opus 1
!!!ONM: No. 12
!!!OMV: Movement 2.
!!!YEC: Copyright 1994, Center for Computer Assisted Research in the Humanities
!!!YEM: Rights to all derivative electronic formats reserved.
!!!YEM: Refer to licensing agreement for further details.
!! For the following instrumentation: Violino I & II, Violone/Archlute,
!!    and Organo.
!! Largo, e puntato.
**kern	**kern	**kern	**kern
*ICklav	*ICstr	*ICstr	*ICstr
*Iorgan	*Icello	*Ivioln	*Ivioln
*	*Iarchl	*	*
!Organo	!Violone	!Violin 2	!Violin 1
!	! or	!	!
!	!Archlute	!	!
*clefF4	*clefF4	*clefG2	*clefG2
*k[f#c#]	*k[f#c#]	*k[f#c#]	*k[f#c#]
*D:	*D:	*D:	*D:
*M4/4	*M4/4	*M4/4	*M4/4
*MM50	*MM50	*MM50	*MM50
=1-	=1-	=1-	=1-
4d\	4d\	1r	16dd\LL
.	.	.	16a\
.	.	.	16b\
.	.	.	16cc#\JJ
4r	4r	.	16dd\LL
.	.	.	16ff#\
.	.	.	16ee\
.	.	.	16dd\JJ
4c#\	4c#\	.	8ee\L
.	.	.	8a\
4r	4r	.	8cc#\
.	.	.	8ee\J
=2	=2	=2	=2
4B\	4B\	1r	16dd\LL
.	.	.	16ee\
.	.	.	16dd\
.	.	.	16cc#\JJ
4r	4r	.	16b\LL
.	.	.	16ee\
.	.	.	16dd\
.	.	.	16ee\JJ
4A\	4A\	.	8cc#\L
.	.	.	8a\J
4r	4r	.	8r
.	.	.	8ff#\
=3	=3	=3	=3
4G\	4G\	1r	(8ff#t\L
.	.	.	8ee\J)
4r	4r	.	8r
.	.	.	8ee\
4F#\	4F#\	.	(8eeT\L
.	.	.	8dd\J)
4r	4r	.	8r
.	.	.	8dd\
=4	=4	=4	=4
4E\	4E\	2r	(8ddT\L
.	.	.	8cc#\J)
4r	4r	.	8r
.	.	.	8cc#\
4d\	4d\	16dd\LL	4dd\
.	.	16a\	.
.	.	16b\	.
.	.	16cc#\JJ	.
4r	4r	16dd\LL	8r
.	.	16ff#\	.
.	.	16ee\	8bb\
.	.	16dd\JJ	.
=5	=5	=5	=5
4c#\	4c#\	8ee\L	(8bbT\L
.	.	8a\	8aa\J)
4r	4r	8cc#\	8r
.	.	8ee\J	8aa\
4B\	4B\	16dd\LL	(8aaT\L
.	.	16ee\	.
.	.	16dd\	8gg#\J)
.	.	16cc#\JJ	.
4r	4r	16b\LL	8r
.	.	16ee\	.
.	.	16dd\	8gg#\
.	.	16ee\JJ	.
=6	=6	=6	=6
4A\	4A\	8cc#\L	16aa\LL
.	.	.	16a\
.	.	8a\J	16b\
.	.	.	16cc#\JJ
4r	4r	8r	16dd\LL
.	.	.	16ee\
.	.	8ff#\	16cc#\
.	.	.	16dd\JJ
4G\	4G\	(8ff#t\L	16b/LL
.	.	.	16g/
.	.	8ee\J)	16a/
.	.	.	16b/JJ
4r	4r	8r	16cc#\LL
.	.	.	16dd\
.	.	8ee\	16b\
.	.	.	16cc#\JJ
=7	=7	=7	=7
4F#\	4F#\	(8eeT\L	16a\LL
.	.	.	16a\
.	.	8dd\J)	16b\
.	.	.	16cc#\JJ
4r	4r	8r	16dd\LL
.	.	.	16ee\
.	.	8dd\	16ff#\
.	.	.	16dd\JJ
4E\	4E\	4.ddT\	16gg\LL
.	.	.	16aa\
.	.	.	16gg\
.	.	.	16ff#\JJ
4r	4r	.	16ee\LL
.	.	.	16ff#\
.	.	8cc#\	16gg\
.	.	.	16aa\JJ
=8	=8	=8	=8
4d\	4d\	4dd\	16ff#\LL
.	.	.	16a\
.	.	.	16b\
.	.	.	16cc#\JJ
4r	4r	8r	16dd\LL
.	.	.	16ff#\
.	.	8bb\	16ee\
.	.	.	16dd\JJ
4c#\	4c#\	(8bbT\L	8ee\L
.	.	8aa\J)	8a\
4r	4r	8r	8cc#\
.	.	8aa\	8ee\J
=9	=9	=9	=9
4B\	4B\	(8aaT\L	16dd\LL
.	.	.	16ee\
.	.	8gg#\J)	16dd\
.	.	.	16cc#\JJ
4r	4r	8r	16b\LL
.	.	.	16ee\
.	.	8gg#\	16dd\
.	.	.	16ee\JJ
4A\	4A\	16aa/LL	8cc#\L
.	.	16e/	.
.	.	16f#/	8a\J
.	.	16g#/JJ	.
4r	4r	16a\LL	8r
.	.	16cc#\	.
.	.	16b\	8ff#\
.	.	16a\JJ	.
=10	=10	=10	=10
4G#\	4G#\	8b/L	(8ff#T\L
.	.	8e/	8ee\J)
4r	4r	8g#/	8r
.	.	8b/J	8ee\
4F#\	4F#\	16a/LL	(8eeT\L
.	.	16b/	.
.	.	16a/	8dd\J)
.	.	16g#/JJ	.
4r	4r	16f#/LL	8r
.	.	16b/	.
.	.	16a/	8dd\
.	.	16b/JJ	.
=11	=11	=11	=11
4E\	4E\	8g#/L	(8ddT\L
.	.	8e/J	8cc#\J)
4r	4r	8r	8r
.	.	8cc#\	8ee\
4d\	4d\	(8cc#t\L	16ff#/LL
.	.	.	16f#/
.	.	8b\J)	16g/
.	.	.	16a/JJ
4r	4r	8r	16b\LL
.	.	.	16cc#\
.	.	8b\	16dd\
.	.	.	16b\JJ
=12	=12	=12	=12
4c#\	4c#\	(8bT/L	16ee/LL
.	.	.	16e/
.	.	8a/J)	16f#/
.	.	.	16g/JJ
4r	4r	8r	16a\LL
.	.	.	16b\
.	.	8a/	16cc#\
.	.	.	16a\JJ
4B\	4B\	4.aT/	16dd\LL
.	.	.	16ee\
.	.	.	16dd\
.	.	.	16cc#\JJ
4r	4r	.	16b\LL
.	.	.	16cc#\
.	.	8g#/	16dd\
.	.	.	16ee\JJ
=13	=13	=13	=13
4A\	4A\	4a/	16cc#\LL
.	.	.	16cc#\
.	.	.	16dd\
.	.	.	16ee\JJ
4r	4r	16r	4ff#\
.	.	16cc#\LL	.
.	.	16b\	.
.	.	16a\JJ	.
4G\	4G\	4b\	16r
.	.	.	16b\LL
.	.	.	16cc#\
.	.	.	16dd\JJ
4r	4r	16r	4ee\
.	.	16b/LL	.
.	.	16a/	.
.	.	16g/JJ	.
=14	=14	=14	=14
4F#\	4F#\	4a/	16r
.	.	.	16a\LL
.	.	.	16b\
.	.	.	16cc#\JJ
4r	4r	16r	4dd\
.	.	16a/LL	.
.	.	16g/	.
.	.	16f#/JJ	.
4E\	4E\	4g/	16r
.	.	.	16dd\LL
.	.	.	16cc#\
.	.	.	16b\JJ
4r	4r	16r	8.cc#\L
.	.	16g/LL	.
.	.	16f#/	.
.	.	16e/JJ	16cc#\Jk
=15	=15	=15	=15
4d\	4d\	8f#\L	4.dd\
.	.	8ff#\	.
4r	4r	(8ff#\	.
.	.	8ee\J)	8bb\
4c#\	4c#\	8r	(8bbT\L
.	.	8ee\L	8aa\J)
4r	4r	(8ee\	8r
.	.	8dd\J)	8aa\
=16	=16	=16	=16
4B\	4B\	8r	(8aaT\L
.	.	8dd\L	8gg\J)
4r	4r	(8dd\	8r
.	.	8cc#\J)	8gg\
4A\	4A\	16r	(8ggT\L
.	.	16a\LL	.
.	.	16b\	8ff#\J)
.	.	16cc#\JJ	.
4r	4r	16dd\LL	8r
.	.	16ee\	.
.	.	16cc#\	8ff#\
.	.	16dd\JJ	.
=17	=17	=17	=17
4G\	4G\	16b/LL	(8ff#t\L
.	.	16g/	.
.	.	16a/	8ee\J)
.	.	16b/JJ	.
4r	4r	16cc#\LL	8r
.	.	16dd\	.
.	.	16b\	8ee\
.	.	16cc#\JJ	.
4F#\	4F#\	16a\LL	(8eeT\L
.	.	16ff#\	.
.	.	16gg\	8dd\J)
.	.	16aa\JJ	.
4r	4r	16bb\LL	8r
.	.	16ccc\	.
.	.	16aa\	8dd\
.	.	16bb\JJ	.
=18	=18	=18	=18
4E\	4E\	16gg\LL	(8ddT\L
.	.	16ee\	.
.	.	16ff#\	8cc\J)
.	.	16gg\JJ	.
4r	4r	16aa\LL	8r
.	.	16bb\	.
.	.	16gg\	8cc\
.	.	16aa\JJ	.
4d\	4d\	16ff#\LL	(8ccT\L
.	.	16dd\	.
.	.	16ee\	8b\J)
.	.	16ff#\JJ	.
4r	4r	16gg\LL	8r
.	.	16aa\	.
.	.	16ff#\	8b\
.	.	16gg\JJ	.
=19	=19	=19	=19
4c#\	4c#\	16ee\LL	4.bT\
.	.	16ff#\	.
.	.	16dd\	.
.	.	16ee\JJ	.
4r	4r	16cc#\LL	.
.	.	16dd\	.
.	.	16ee\	8a#/
.	.	16ff#\JJ	.
4B\	4B\	8dd\L	16b/LL
.	.	.	16f#/
.	.	8b\J	16g#/
.	.	.	16a#/JJ
4r	4r	4r	16b\LL
.	.	.	16dd\
.	.	.	16cc#\
.	.	.	16b\JJ
=20	=20	=20	=20
4A\	4A\	16a/LL	4cc#\
.	.	16e/	.
.	.	16f#/	.
.	.	16g#/JJ	.
4r	4r	16a\LL	4r
.	.	16cc#\	.
.	.	16b\	.
.	.	16a\JJ	.
4G\	4G\	4b\	16gg\LL
.	.	.	16dd\
.	.	.	16ee\
.	.	.	16ff#\JJ
4r	4r	4r	16gg\LL
.	.	.	16bb\
.	.	.	16aa\
.	.	.	16gg\JJ
=21	=21	=21	=21
4F#\	4F#\	16ff#\LL	4aa\
.	.	16a\	.
.	.	16b\	.
.	.	16cc#\JJ	.
4r	4r	16dd\LL	8r
.	.	16ff#\	.
.	.	16ee\	8dd\
.	.	16dd\JJ	.
4E\	4E\	16gg\LL	(8ddT\L
.	.	16aa\	.
.	.	16ff#\	8cc#\J)
.	.	16gg\JJ	.
4r	4r	16ee\LL	8r
.	.	16aa\	.
.	.	16gg\	8cc#\
.	.	16aa\JJ	.
=22	=22	=22	=22
4d\	4d\	4ff#\	16dd\LL
.	.	.	16ff#\
.	.	.	16aa\
.	.	.	16ff#\JJ
4r	4r	16r	4bb\
.	.	16b\LL	.
.	.	16cc#\	.
.	.	16dd\JJ	.
4c#\	4c#\	4ee\	16r
.	.	.	16ee\LL
.	.	.	16gg#\
.	.	.	16ee\JJ
4r	4r	16r	[4aa\
.	.	16a\LL	.
.	.	16b\	.
.	.	16cc#\JJ	.
=23	=23	=23	=23
4B\	4B\	16dd\LL	4aa\]
.	.	16ee\	.
.	.	16dd\	.
.	.	16cc#\JJ	.
4r	4r	16b\LL	4gg#\
.	.	16ee\	.
.	.	16dd\	.
.	.	16ee\JJ	.
4A\	4A\	8cc#\L	16aa/LL
.	.	.	16e/
.	.	8a\J	16f#/
.	.	.	16g#/JJ
4r	4r	8r	16a\LL
.	.	.	16cc#\
.	.	8ff#\	16b\
.	.	.	16a\JJ
=24	=24	=24	=24
4G#\	4G#\	(8ff#T\L	8b/L
.	.	8ee\J)	8e/
4r	4r	8r	8g#/
.	.	8ee\	8b/J
4F#\	4F#\	(8eeT\L	16a/LL
.	.	.	16b/
.	.	8dd#\J)	16a/
.	.	.	16g#/JJ
4r	4r	8r	16f#/LL
.	.	.	16b/
.	.	8dd#\	16a/
.	.	.	16b/JJ
=25	=25	=25	=25
4E\	4E\	8ee\L	8g#/L
.	.	8gg#\	8e/J
4r	4r	(8gg#\	8r
.	.	8ff#\J)	8cc#\
4d\	4d\	8r	(8cc#t\L
.	.	8ff#\L	8b\J)
4r	4r	(8ff#\	8r
.	.	8ee\J)	8b\
=26	=26	=26	=26
4c#\	4c#\	16r	(8bT/L
.	.	16ee\LL	.
.	.	16ff#\	8a/J)
.	.	16gg#\JJ	.
4r	4r	16aa\LL	8r
.	.	16a\	.
.	.	16b\	8a/
.	.	16cc#\JJ	.
4B\	4B\	16dd\LL	4.aT/
.	.	16ee\	.
.	.	16cc#\	.
.	.	16dd\JJ	.
4r	4r	16b\LL	.
.	.	16cc#\	.
.	.	16dd\	8g#/
.	.	16ee\JJ	.
=27	=27	=27	=27
4A\	4A\	8cc#\L	16a/LL
.	.	.	16e/
.	.	8a\J	16f#/
.	.	.	16g#/JJ
4r	4r	8r	16a\LL
.	.	.	16cc#\
.	.	8ff#\	16b\
.	.	.	16a\JJ
4G\	4G\	(8ff#t\L	16b\LL
.	.	.	16b\
.	.	8ee\J)	16cc#\
.	.	.	16dd\JJ
4r	4r	8r	16ee\LL
.	.	.	16gg\
.	.	8ee\	16ff#\
.	.	.	16ee\JJ
=28	=28	=28	=28
4F#\	4F#\	(8eeT\L	16aa\LL
.	.	.	16a\
.	.	8dd\J)	16b\
.	.	.	16cc#\JJ
4r	4r	8r	16dd\LL
.	.	.	16ff#\
.	.	8dd\	16ee\
.	.	.	16dd\JJ
4E\	4E\	4.ddT\	16gg\LL
.	.	.	16aa\
.	.	.	16ff#\
.	.	.	16gg\JJ
4r	4r	.	16ee\LL
.	.	.	16ff#\
.	.	8cc#\	16gg\
.	.	.	16aa\JJ
=29	=29	=29	=29
4d\	4d\	16dd\LL	8ff#\L
.	.	16a\	.
.	.	16b\	8dd\J
.	.	16cc#\JJ	.
4r	4r	16dd\LL	8r
.	.	16ff#\	.
.	.	16ee\	8bb\
.	.	16dd\JJ	.
4c#\	4c#\	8ee\L	(8bbT\L
.	.	8a\	8aa\J)
4r	4r	8cc#\	8r
.	.	8ee\J	8aa\
=30	=30	=30	=30
4B\	4B\	16dd\LL	(8aaT\L
.	.	16ee\	.
.	.	16dd\	8gg#\J)
.	.	16cc#\JJ	.
4r	4r	16b\LL	8r
.	.	16ee\	.
.	.	16dd\	8gg#\
.	.	16ee\JJ	.
4A\	4A\	8cc#\L	16aa\LL
.	.	.	16cc#\
.	.	8a\J	16dd\
.	.	.	16ee\JJ
4r	4r	8r	16ff#\LL
.	.	.	16ggn\
.	.	8ff#\	16aa\
.	.	.	16ff#\JJ
=31	=31	=31	=31
4G\	4G\	(8ff#t\L	16bb\LL
.	.	.	16b\
.	.	8ee\J)	16cc#\
.	.	.	16dd\JJ
4r	4r	8r	16ee\LL
.	.	.	16ff#\
.	.	8ee\	16gg\
.	.	.	16ee\JJ
4F#\	4F#\	(8eeT\L	16aa\LL
.	.	.	16a\
.	.	8dd\J)	16b\
.	.	.	16cc#\JJ
4r	4r	8r	16dd\LL
.	.	.	16ee\
.	.	8dd\	16ff#\
.	.	.	16dd\JJ
=32	=32	=32	=32
4E\	4E\	4.ddT\	16gg\LL
.	.	.	16aa\
.	.	.	16gg\
.	.	.	16ff#\JJ
4r	4r	.	16ee\LL
.	.	.	16ff#\
.	.	8cc#\	16gg\
.	.	.	16aa\JJ
4d\	4d\	4dd\	16ff#\LL
.	.	.	16ff#\
.	.	.	16gg\
.	.	.	16aa\JJ
4r	4r	16r	4bb\
.	.	16ff#\LL	.
.	.	16ee\	.
.	.	16dd\JJ	.
=33	=33	=33	=33
4c#\	4c#\	4ee\	16r
.	.	.	16bb\LL
.	.	.	16aa\
.	.	.	16gg\JJ
4r	4r	16r	4aa\
.	.	16a\LL	.
.	.	16b\	.
.	.	16cc#\JJ	.
4B\	4B\	4dd\	16r
.	.	.	16dd\LL
.	.	.	16ee\
.	.	.	16ff#\JJ
4r	4r	16r	4gg\
.	.	16dd\LL	.
.	.	16cc#\	.
.	.	16b\JJ	.
=34	=34	=34	=34
4A\	4A\	4cc#\	16r
.	.	.	16gg\LL
.	.	.	16ff#\
.	.	.	16ee\JJ
4r	4r	16r	4ff#\
.	.	16f#/LL	.
.	.	16g/	.
.	.	16a/JJ	.
4G\	4G\	4b\	16r
.	.	.	16b\LL
.	.	.	16cc#\
.	.	.	16dd\JJ
4r	4r	16r	4ee\
.	.	16b/LL	.
.	.	16a/	.
.	.	16g/JJ	.
=35	=35	=35	=35
4F#\	4F#\	4a/	16r
.	.	.	16ee\LL
.	.	.	16dd\
.	.	.	16cc#\JJ
4r	4r	16r	2dd\
.	.	16d/LL	.
.	.	16e/	.
.	.	16f#/JJ	.
2E\	2E\	2g/	.
.	.	.	4cc#\
=36	=36	=36	=36
1D;\	1D;\	1f#;/	1dd;\
==	==	==	==
*-	*-	*-	*-
!!!CDT: 1653/2/17/-1713/1/8
!!!OCY: Italia
!!!ODE: Queen Christina Alexandra of Sweden
!!!ODT: 1681//
!!!OPC: Roma; Rome
!!!AGN: trio sonata
!!!AST: baroque, chamber
!!!AMT: simple quadruple
!!!YOR1: J. Joachim & F. Chrysander (eds.) Les Oeuvre de Arcangelo Corelli
!!!YOR2: London: Augener & Co. 1871
!!!YOY: 1871
!!!AIN: archl cello organ violn
!!!EEV: 1.1
!!!RDT: 1993 September 17
!!!YER: 1994 December 14
!!!EMD: 1996 July 9
!!!YEN: United States of America
!!!EFL: 2/4
!!!ENC: Frances Bennion & Steven Rasmussen
!!!EED: W.B. Hewlett
!!!VTS: 3681611172
